public/Group 8.svg

<svg width="188" height="227" viewBox="0 0 188 227" fill="none" xmlns="http://www.w3.org/2000/svg">
<path d="M93.1514 0C96.9404 0.101077 176.535 36.5658 187.191 41.2366C187.365 55.9953 187.435 70.7553 187.403 85.5147C187.422 95.2803 187.209 105.334 187.431 115.072C188.709 171 139.277 205.056 94.318 226.743C74.0001 218.705 42.7959 198.445 27.8436 182.166C4.51725 156.768 -0.62145 138.912 0.18103 106.079L13.5934 105.944C13.2194 113.259 13.3891 120.592 14.1011 127.882C19.5268 127.816 42.528 129.041 45.3865 126.842C46.5573 124.994 46.58 125.589 46.2858 123.823C45.1171 121.835 42.4566 120.706 40.3645 119.563C40.2662 117.466 40.199 115.366 40.1622 113.267C39.9678 101.404 40.4882 88.1759 49.2702 79.1935C52.6435 75.7371 56.9387 73.3218 61.6447 72.2333C67.9429 70.7468 117.568 71.4381 127.216 71.3625L127.285 92.8403L91.4072 92.7972C81.4126 92.788 62.7887 89.5988 62.1325 103.226C60.3748 116.321 64.699 134.924 55.7346 144.399C48.3695 152.185 32.1841 150.832 21.8735 150.893C39.1116 181.203 64.4502 195.931 94.1752 211.776C125.59 195.495 160.988 171.284 171.281 135.705C174.73 123.783 173.846 109.085 173.836 96.5971L173.791 50.5852L93.9942 14.3332C67.1051 26.3839 40.293 38.6072 13.5616 51.0029C12.9281 65.6577 13.4053 83.9823 13.3148 98.994L0.0424421 99.1834C-0.0445227 79.9548 0.00216152 60.7254 0.182454 41.4974C9.02317 36.8345 22.7601 31.1989 32.1699 26.9954C52.4441 17.8779 72.7712 8.87923 93.1514 0Z" fill="#F57824"/>
<path d="M101.224 107.866C106.316 109.767 122.869 140.329 124.087 147.13C125.208 153.155 123.863 159.378 120.354 164.403C116.589 169.684 110.681 172.204 104.503 173.296C98.6259 173.424 92.8354 172.686 88.0297 169.173C66.2977 153.285 91.8441 121.426 101.224 107.866Z" fill="#F57824"/>
<path d="M140.976 65.458C143.561 65.2799 144.78 65.3011 147.362 65.5188C148.663 67.9977 147.984 94.3399 147.938 98.947L139.012 99.0538L131.976 99.128C131.067 90.3046 131.602 74.6539 131.744 65.5994L140.976 65.458Z" fill="#F57824"/>
<path d="M152.685 71.6079L164.809 71.4531C165.358 77.0576 165.07 87.154 165.011 93.0108C160.918 92.991 156.824 93.049 152.733 93.1854C152.566 86.0824 152.669 78.7342 152.685 71.6079Z" fill="#F57824"/>
</svg>

<svg xmlns="http://www.w3.org/2000/svg" width="188" height="227" fill="none" viewBox="0 0 188 227"><path fill="#f57824" d="M93.15 0c3.79.1 83.39 36.57 94.04 41.24q.27 22.14.21 44.27c.02 9.77-.2 19.82.03 29.56 1.28 55.93-48.15 89.99-93.11 111.67-20.32-8.03-51.52-28.3-66.48-44.57C4.52 156.77-.62 138.9.18 106.07l13.41-.13q-.55 11 .51 21.94c5.43-.06 28.43 1.16 31.29-1.04 1.17-1.85 1.19-1.25.9-3.02-1.17-1.98-3.83-3.11-5.93-4.26q-.14-3.15-.2-6.3c-.2-11.86.33-25.08 9.11-34.07a25 25 0 0 1 12.37-6.96c6.3-1.48 55.93-.8 65.58-.87l.06 21.48-35.87-.04c-10-.01-28.62-3.2-29.28 10.43-1.76 13.1 2.57 31.7-6.4 41.17-7.36 7.78-23.55 6.43-33.86 6.5 17.24 30.3 42.58 45.03 72.3 60.88 31.42-16.28 66.82-40.5 77.11-76.07 3.45-11.93 2.57-26.63 2.56-39.11l-.05-46.01L94 14.33A6867 6867 0 0 0 13.56 51c-.63 14.66-.15 32.98-.25 48l-13.27.18Q-.08 70.34.18 41.5C9.02 36.83 22.76 31.2 32.17 27q30.4-13.68 60.98-27"/><path fill="#f57824" d="M101.22 107.87c5.1 1.9 21.65 32.46 22.87 39.26a23 23 0 0 1-3.74 17.27c-3.76 5.28-9.67 7.8-15.85 8.9-5.87.12-11.66-.61-16.47-4.13-21.73-15.88 3.81-47.74 13.2-61.3m39.75-42.41a34 34 0 0 1 6.38.06c1.3 2.48.62 28.82.58 33.43l-8.93.1-7.03.08c-.91-8.83-.38-24.48-.24-33.53zm11.71 6.14 12.12-.15c.55 5.6.26 15.7.2 21.56q-6.15-.03-12.28.18c-.16-7.1-.06-14.46-.04-21.58"/></svg>
